X: 36
M:C|
L:1/8
K:G
u(d>.c)"^SEGNO"|\
vB>db>a g>ec>"4"e | d>"4"ed>B G>DG>B | A>cf>e d>cB>A |\
 G>FG>"4"e d2d>c |
|:(B>^.A)|\
v=A>ce>g c'>ba>g | f>ba>f d>cd>^d | f>ec>A G>Af>e |\
 e>dA>F D2B>^A |
 =A>ce>g c'>ba>g | f>ba>f d>cd>^d |
 f>ec>A b>ag>e |1 d2 f2 d2:|2 (3dDF (3A=cd f>ed>c "^SEGNO""_D.S."|]


